X: 128
T:PASSEPIED de PLAINTEL 1
M:4/4
L:1/4
Q:1/4=60
Z:Yves BELOTTEAU
K:C
% Last note suggests Mixolydian mode tune
|AA/2^A=A/2G3/2G/2F/2G/2AA/2A/2|^A/2=A/2GF/2G3/2 AA/2^A=A/2G3/2|G/2F/2G/
2AA/2A/2^A/2 =A/2GF/2G3/2G/2|A/2^A/2=AG/2A/2^A/2=A/2 D/2^D/2F/2GF/2^D|
G/2A/2^A/2 =A<GGF/2^DG/2A/2^A/2=A/2|=D/2^D/2F/2GF/2^D G/2A/2^A/2=A/2G3/2
|BGAB cABB/2B/2|BAGA/2B/2 cAB2|
BGAB cABB/2B/2|BAGA/2B/2 cAB2|GABA/2B/2 cBAA/2A/2|AGAd/2d/2 dAB2|
GABA/2B/2 cBAA/2A/2|AGA2 d2G2|
W:
W: From "Falaleiro" http://home.t-online.de/home/pheld/homepage.htm

